svgs/thin/tower-observation.svg

<svg xmlns="http://www.w3.org/2000/svg" viewBox="0 0 512 512"><!--! Font Awesome Pro 6.5.1 by @fontawesome - https://fontawesome.com License - https://fontawesome.com/license (Commercial License) Copyright 2023 Fonticons, Inc. --><path d="M252.3 .9c2.3-1.2 5.1-1.2 7.4 0l184 96c3.9 2 5.4 6.9 3.4 10.8s-6.9 5.4-10.8 3.4L416 100.5V184c0 22.1-17.9 40-40 40H345.7l52.9 272H504c4.4 0 8 3.6 8 8s-3.6 8-8 8H392.1h-.3H120.2h-.3H8c-4.4 0-8-3.6-8-8s3.6-8 8-8H113.4l52.9-272H136c-22.1 0-40-17.9-40-40V100.5L75.7 111.1c-3.9 2-8.7 .5-10.8-3.4s-.5-8.7 3.4-10.8l184-96zM256 17L112 92.2V184c0 13.3 10.7 24 24 24h39.8 .3H335.9h.3H376c13.3 0 24-10.7 24-24V92.2L256 17zM382.3 496L377 468.7 256 373.6 135 468.7 129.7 496H382.3zM170.5 286.1L256 353.3l85.5-67.2L329.4 224H182.6l-12.1 62.1zm-3.4 17.7L139.7 444.6l103.4-81.2-76-59.7zm101.9 59.7l103.4 81.2L344.9 303.7l-76 59.7zM168 112c-4.4 0-8 3.6-8 8v32c0 4.4 3.6 8 8 8H344c4.4 0 8-3.6 8-8V120c0-4.4-3.6-8-8-8H168zm-24 8c0-13.3 10.7-24 24-24H344c13.3 0 24 10.7 24 24v32c0 13.3-10.7 24-24 24H168c-13.3 0-24-10.7-24-24V120z"/></svg>

<svg xmlns="http://www.w3.org/2000/svg" viewBox="0 0 512 512"><!--! Font Awesome Pro 6.1.1 by @fontawesome - https://fontawesome.com License - https://fontawesome.com/license (Commercial License) Copyright 2022 Fonticons, Inc. --><path d="M144 120C144 106.7 154.7 96 168 96H344C357.3 96 368 106.7 368 120V152C368 165.3 357.3 176 344 176H168C154.7 176 144 165.3 144 152V120zM160 120V152C160 156.4 163.6 160 168 160H344C348.4 160 352 156.4 352 152V120C352 115.6 348.4 112 344 112H168C163.6 112 160 115.6 160 120zM252.3 .9074C254.6-.3025 257.4-.3025 259.7 .9074L443.7 96.91C447.6 98.95 449.1 103.8 447.1 107.7C445 111.6 440.2 113.1 436.3 111.1L416 100.5V184C416 206.1 398.1 224 376 224H345.7L398.6 496H504C508.4 496 512 499.6 512 504C512 508.4 508.4 512 504 512H8C3.582 512 0 508.4 0 504C0 499.6 3.582 496 8 496H113.4L166.3 224H136C113.9 224 96 206.1 96 184V100.5L75.7 111.1C71.78 113.1 66.95 111.6 64.91 107.7C62.86 103.8 64.38 98.95 68.3 96.91L252.3 .9074zM112 92.15V184C112 197.3 122.7 208 136 208H376C389.3 208 400 197.3 400 184V92.15L256 17.02L112 92.15zM382.3 496L376.1 468.7L256 373.6L135 468.7L129.7 496H382.3zM256 353.3L341.5 286.1L329.4 224H182.6L170.5 286.1L256 353.3zM167.1 303.7L139.7 444.6L243.1 363.4L167.1 303.7zM268.1 363.4L372.3 444.6L344.9 303.7L268.1 363.4z"/></svg>
